!!!!SEGMENT: pl-kk--kk-i-3--008-005_anonim--missa-solenne-benedictus.krn
!!!cenid: 15xx:603
!!!COM: Anonim
!!!COM-rismID: pe30004985
!!!CDT:
!!!CNT:
!!!OPR: Missa Solenne
!!!OTL: Benedictus
!!!OMV: 005
!!!PDT:
!!!AGN:
!!!SMS-siglum: PL-Kk
!!!SMS-shelfmark: Kk.I.3
!!!SMS-shelfwork: 008-005 M
!!!SMS-variant:
!!!SMS-altvar:
!!!NIFC-rismSourceID: 1001145493
!!!NIFC-rismChildID: 1001145493
!!!NIFC-islandoraID: pl-kk:1170
!!!URL-pdf-islandora: https://repozytorium.nifc.pl/islandora/object/pl-kk%3A1170/datastream/PDF/view
!!!URL-scan: https://polish.musicsources.pl/pl/lokalizacje/galeria/rekopisy/5919 @EN{Scan on Polish Music Sources Website} @PL{Skany w portalu Dziedzictwo Muzyki Polskiej w otwartym dostępie}
!!!IIIF:
!!!ONB-nifc: UWAGA: Discantus (s. 46v-47r, skan 0049), Tenor (s. 34r-v, skan 0206-0207, część wybrakowana), Bassus (s. 44r-v, skan 0347-0348). Następna część: Agnus Dei
!!!AIN: 1 bass 1 tenor 1 vox
!!!key:
**kern	**text	**kern	**text	**kern	**text
*part3	*part3	*part2	*part2	*part1	*part1
*staff3	*staff3	*staff2	*staff2	*staff1	*staff1
*Ibass	*	*Itenor	*	*Ivox	*
*I"Basso	*	*I"Tenore	*	*I"Canto	*
*I'B.	*	*I'T.	*	*I'C.	*
*clefF4	*	*clefC4	*	*clefC3	*
*k[]	*	*k[]	*	*k[]	*
*G:	*	*G:	*	*G:	*
*M2/1	*	*M2/1	*	*M2/1	*
=1-	=1-	=1-	=1-	=1-	=1-
!	!	!LO:TX:t=P:problem=źródło niekompletne - brak większości partii Tenoru, jest tylko końcówka na nowej stronie	!	!	!
1G	Be-	0ryy	.	1c	Be-
1G	-ne-	.	.	2B/	-ne-
.	.	.	.	2c/	.
=2-	=2-	=2-	=2-	=2-	=2-
1F	-di-	0ryy	.	1d	-di-
1E	-ctus	.	.	1e	.
=3-	=3-	=3-	=3-	=3-	=3-
1E	qui	0ryy	.	1e	-ctus
2C/	.	.	.	2e\	.
1D\	.	.	.	1f\	.
=4-	=4-	=4-	=4-	=4-	=4-
.	.	0ryy	.	.	.
*	*	*	*	*custos:d	*
2AA/	ve-	.	.	2c/	qui
!	!	!	!	!LO:PB:g=original	!
1BB	.	.	.	1d	.
=5-	=5-	=5-	=5-	=5-	=5-
2AA/	-nit	0ryy	.	2c/	ve-
2D\	.	.	.	2d/	.
2C/	.	.	.	2e/	.
1D\	.	.	.	1A/	-nit
=6-	=6-	=6-	=6-	=6-	=6-
.	.	0ryy	.	.	.
2C/	.	.	.	2c/	in
2BB/	.	.	.	2F/	no-
2GG/	.	.	.	2G/	.
=7-	=7-	=7-	=7-	=7-	=7-
*custos:AA	*	*	*	*	*
1D	.	0ryy	.	2A/	-mi-
.	.	.	.	2B/	.
!LO:LB:g=original	!	!	!	!	!
2AA/	.	.	.	1c	.
1A\	in	.	.	.	.
=8-	=8-	=8-	=8-	=8-	=8-
.	.	0ryy	.	1d	.
2G\	.	.	.	.	.
2E\	.	.	.	1e	-ne
2C/	.	.	.	.	.
=9-	=9-	=9-	=9-	=9-	=9-
1F	.	1ryy	.	1c	do-
*	*	*lig	*	*	*
*	*	*	*	*custos:c	*
2D/	no-	1A	do-	2d/	.
!	!	!	!	!LO:LB:g=original	!
1F\	.	.	.	2c/	.
=10-	=10-	=10-	=10-	=10-	=10-
.	.	1G	.	2d/	.
2E/	.	.	.	1e	.
2C/	.	1E	.	.	.
2AA/	-mi-	.	.	2c/	.
*	*	*Xlig	*	*	*
=11-	=11-	=11-	=11-	=11-	=11-
*lig	*	*	*	*	*
1D	-ne	1F	.	2A/	.
.	.	.	.	1d	.
*	*	*lig	*	*	*
1AA	.	1E	.	.	.
.	.	.	.	2c/	.
*Xlig	*	*	*	*	*
=12-	=12-	=12-	=12-	=12-	=12-
1D	do-	1D	.	1d	.
*	*	*Xlig	*	*	*
2GG/	.	1G	.	2B/	.
2C/	.	.	.	1c\	.
=13-	=13-	=13-	=13-	=13-	=13-
*custos:d	*	*	*	*	*
2AA/	.	1A	.	.	.
!LO:PB:g=original	!	!	!	!	!
2D/	.	.	.	2d/	.
2GG/	.	1G	-mi-	2B/	.
2C/	.	.	.	2e/	-mi-
=14-	=14-	=14-	=14-	=14-	=14-
2AA/	.	1A	.	2c/	.
1D	-mi-	.	.	1d	.
!	!	!LO:TX:t=P:problem=kreska pseudotaktowa	!	!	!
.	.	0.A	-ni	.	.
2D/	-ni	.	.	2d/	.
=15-	=15-	=15-	=15-	=15-	=15-
*custos:AA	*	*	*	*custos:e	*
!LO:TX:a:t=P:problem=w źródle brak końcówki partii - tylko duży znak custos	!	!	!	!	!
!	!	!	!	!LO:TX:a:t=P:problem=w źródle brak końcówki partii - tylko duży znak custos	!
0.AA;<	.	.	.	0.c;>	-ni
=16-	=16-	=16	=16	=16-	=16-
*lig	*	*	*	*	*
!	!	!LO:TX:t=P:problem=tylko w tenorze jest początek Hosanna, w C i B są tylko kustosze.	!	!	!
.	O-	1A	Oſ-	.	O-
*	*	*lig	*	*	*
0Cyy	.	1G	-ſan-	1.eyy	.
*Xlig	*	*	*	*	*
=17-	=17-	=17-	=17-	=17-	=17-
.	.	1E	.	.	.
.	.	.	.	1eyy	.
*lig	*	*Xlig	*	*	*
0Dyy	.	1F	.	.	.
.	.	.	.	1d\yy	.
=18-	=18-	=18-	=18-	=18-	=18-
*	*	*lig	*	*	*
.	.	1E	.	.	.
.	.	.	.	2c/yy	.
*Xlig	*	*	*	*	*
1.Ayy	.	1D	.	1.dyy	.
*	*	*Xlig	*	*	*
=19-	=19-	=19-	=19-	=19-	=19-
.	.	1D	-na	.	.
2E/yy	.	.	.	2c/yy	.
1Dyy	-ſan-	1Dyy	.	1dyy	.
==	==	==	==	==	==
*-	*-	*-	*-	*-	*-
!!!system-decoration: [(s1,s2,s3)]
!!!RDF**kern: > = above
!!!RDF**kern: < = below
!!!RDF**kern: | = vertical stroke
!!!RDF**kern: N = linked
!!!RDF**kern: i = editorial accidental
!!!RDF**kern: l = terminal long
!!!ENC: Mateusz Solarz
!!!END: 2021-12-30
!!!EED: Wojciech Jakubiak-Danek
!!!EEV: 2022-01-02
!!!YEC: Copyright 2022 Narodowy Instytut Fryderyka Chopina (https://polishscores.org)
!!!YEM: License CC-BY-4.0 (https://creativecommons.org/licenses/by/4.0)
